resources/haticons/SVG/coderwall.svg

<!-- Generated by IcoMoon.io -->
<svg version="1.1" xmlns="http://www.w3.org/2000/svg" width="24" height="24" viewBox="0 0 24 24">
<title>coderwall</title>
<path fill="#3e8dcc" d="M21.354 18.708c1.46 0 2.646 1.185 2.646 2.646 0 1.46-1.186 2.646-2.646 2.646s-2.646-1.186-2.646-2.646c0-1.458 1.185-2.646 2.646-2.646zM12 9.354c1.46 0 2.646 1.186 2.646 2.646s-1.186 2.646-2.646 2.646-2.646-1.186-2.646-2.646 1.186-2.646 2.646-2.646zM21.354 9.354c1.46 0 2.646 1.186 2.646 2.646s-1.186 2.646-2.646 2.646-2.646-1.186-2.646-2.646 1.185-2.646 2.646-2.646zM12 0c1.46 0 2.646 1.185 2.646 2.646 0 1.46-1.186 2.646-2.646 2.646s-2.646-1.186-2.646-2.646 1.186-2.646 2.646-2.646zM2.646 0c1.46 0 2.646 1.185 2.646 2.646 0 1.46-1.186 2.646-2.646 2.646s-2.646-1.186-2.646-2.646 1.186-2.646 2.646-2.646zM21.354 0c1.46 0 2.646 1.185 2.646 2.646 0 1.46-1.186 2.646-2.646 2.646s-2.646-1.186-2.646-2.646 1.185-2.646 2.646-2.646z"></path>
</svg>

<svg xmlns="http://www.w3.org/2000/svg" width="24" height="24"><path fill="#3e8dcc" d="M21.354 18.708a2.647 2.647 0 0 1 0 5.292 2.648 2.648 0 0 1-2.646-2.646 2.648 2.648 0 0 1 2.646-2.646zM12 9.354c1.46 0 2.646 1.186 2.646 2.646S13.46 14.646 12 14.646 9.354 13.46 9.354 12 10.54 9.354 12 9.354zm9.354 0C22.814 9.354 24 10.54 24 12s-1.186 2.646-2.646 2.646S18.708 13.46 18.708 12s1.185-2.646 2.646-2.646zM12 0a2.647 2.647 0 0 1 0 5.292c-1.46 0-2.646-1.186-2.646-2.646S10.54 0 12 0zM2.646 0a2.647 2.647 0 0 1 0 5.292C1.186 5.292 0 4.106 0 2.646S1.186 0 2.646 0zm18.708 0a2.647 2.647 0 0 1 0 5.292 2.647 2.647 0 0 1 0-5.292z"/></svg>
